rospo-light/16x16/actions/view-bank-account.svg

<svg height="16" viewBox="0 0 16 16" width="16" xmlns="http://www.w3.org/2000/svg"><path d="m8 1-7 7h2v7h10v-7h2zm0 5c1.1046 0 2 .89547 2 2s-.89543 2-2 2c2.9999-.0018 3 2.400391 3 2.400391v.599609h-6v-.599609s-.00011-2.398591 3-2.400391c-1.1046 0-2-.89547-2-2s .89543-2 2-2z" fill="#5c616c"/></svg>

<?xml version="1.0" encoding="UTF-8" standalone="no"?>
<svg xmlns="http://www.w3.org/2000/svg" width="22" height="22" viewBox="0 0 22 22">
 <defs>
  <style type="text/css" id="current-color-scheme">
   .ColorScheme-Text { color:#5c616c; } .ColorScheme-Highlight { color:#5294e2; }
  </style>
 </defs>
 <path style="fill:currentColor;opacity:1" class="ColorScheme-Text" transform="translate(3 3)" d="M 8 1 L 1 8 L 3 8 L 3 15 L 13 15 L 13 8 L 15 8 L 8 1 z M 8 6 C 9.1046 6 10 6.89547 10 8 C 10 9.10453 9.10457 10 8 10 C 10.9999 9.9982 11 12.400391 11 12.400391 L 11 13 L 5 13 L 5 12.400391 C 5 12.400391 4.99989 10.0018 8 10 C 6.8954 10 6 9.10453 6 8 C 6 6.89547 6.89543 6 8 6 z"/>
</svg>
